!!!COM: Bach, Johann Sebastian
!!!CDT: 1685/3//-1750/7/28/
!!!OTL@@DE: Es ist das Heil uns kommen her
!!!AGN: 4-Part Chorale
!!!SCT: Erk 290
!!!SCT: BWV 9
!!!YEC: Copyright 1994, David Huron
!!!YEC: Changes/Additions 2001 by Craig Stuart Sapp
!!!YEN: United States of America
!!!SMA: 371 Bach Chorales, edited by Ludwig Erk, C.F. Peters
!!!PDT: 1850, 1865
!!!ONB: Harmony and Root analysis done manually by Craig Sapp
**kern	**kern	**kern	**kern	**root	**harm	**kern
!bass	!tenor	!alto	!soprno	!	!	!
*Iorgan	*Iorgan	*Iorgan	*Iorgan	*Iorgan	*	*Iorgan
*M4/4	*M4/4	*M4/4	*M4/4	*M4/4	*M4/4	*M4/4
*met(C)	*met(C)	*met(C)	*met(C)	*met(C)	*met(C)	*met(C)
*MM60	*MM60	*MM60	*MM60	*MM60	*MM60	*MM60
*k[f#c#g#d#]	*k[f#c#g#d#]	*k[f#c#g#d#]	*k[f#c#g#d#]	*k[f#c#g#d#]	*k[f#c#g#d#]	*k[f#c#g#d#]
*E:	*E:	*E:	*E:	*E:	*E:	*E:
*>[A,A,B]	*>[A,A,B]	*>[A,A,B]	*>[A,A,B]	*>[A,A,B]	*>[A,A,B]	*>[A,A,B]
*>A	*>A	*>A	*>A	*>A	*>A	*>A
4E	4e	4g#	4b	4EE	I	4E 4g# 4b
=1	=1	=1	=1	=1	=1	=1
4E	4B	8f#	4b	4EE	I	4E 4g# 4b
.	.	8g#	.	.	.	.
4D#	4f#	4a	4b	4BB	V7b	4b 4D# 4ff# 4aa
4E	4e	8g#	8b	8EE	I	8E 8g# 8b
.	.	8a	8cc#	8AA	IVc	8a 8cc# 8E
4GG#	4e	4b	4ddn	4EE	V7b/IV	4e 4G# 4b 4dd
=2	=2	=2	=2	=2	=2	=2
4AA	8e	8b	4cc#	8AA	IV	8A 8cc# 8ee
.	8f#	8a	.	8FF#	iib	8f# 8A 8cc#
8BB	4gn	8dn	4b	8GG	-IIIb	8g 8B 8dd
8C#	.	8e	.	8CC#	viio7/-VII	8C# 8e 8g 8b
4Dn;	4dn;	4f#;	4a;	4DD;	-VII;	4D; 4f#; 4a;
4D#	4B	4f#	8b	4BB	Vb	4b 4D# 4ff#
.	.	.	8a	.	.	.
=3	=3	=3	=3	=3	=3	=3
4.E	8B	4e	8g#	4EE	I	4E 4g# 4b
.	8A	.	8f#	.	.	.
.	4G#	4B	8e	4EE	I	4E 4g# 4b
8D#	.	.	8f#	.	.	.
8C#	4c#	4e	4g#	4CC#	vi	4C# 4e 4g#
8D#	.	.	.	.	.	.
8E	4F#	4c#	4a#	4FF#	V7d/V	4f# 4a# 4cc# 4E
8F#	.	.	.	.	.	.
=4	=4	=4	=4	=4	=4	=4
8D#	8F#	4.f#	4b	8BB	Vb	8b 8D# 8ff#
8BB	8B	.	.	8BB	V	8B 8dd# 8ff#
4F#	4A#	.	4cc#	4FF#	V/V	4F# 4a# 4cc#
.	.	8e	.	.	.	.
4BB;	4F#;	4d#;	4b;	4BB;	V;	4B; 4dd#; 4ff#;
=:|!	=:|!	=:|!	=:|!	=:|!	=:|!	=:|!
*>B	*>B	*>B	*>B	*>B	*>B	*>B
8E	4G#	8e	4b	4EE	I	4E 4g# 4b
8D#	.	8f#	.	.	.	.
=5	=5	=5	=5	=5	=5	=5
4C#	4c#	8g#	4ee	4CC#	vi	4C# 4e 4g#
.	.	8a#	.	.	.	.
4BB	8d#	4b	4dd#	4BB	V	4B 4dd# 4ff#
.	8e	.	.	.	.	.
8F#	4f#	8a#	4cc#	4FF#	V/V	4F# 4a# 4cc#
8G#	.	8g#	.	.	.	.
8An	4B	4f#	4dd#	4BB	V7d	4b 4dd# 4ff# 4A
8F#	.	.	.	.	.	.
=6	=6	=6	=6	=6	=6	=6
8G#	4B	8b	8ee	8EE	Ib	8e 8G# 8b
8E	.	8g#	8dd#	8EE	I7	8E 8g# 8b 8dd#
4F#	8f#	4a#	4cc#	4FF#	V/V	4F# 4a# 4cc#
.	8e	.	.	.	.	.
4BB;	4d#;	4f#;	4b;	4BB;	V;	4B; 4dd#; 4ff#;
8E	4e	8g#	4b	4EE	I	4E 4g# 4b
8F#	.	8an	.	.	.	.
=7	=7	=7	=7	=7	=7	=7
8G#	8B	8b	4ee	8EE	Ib	8e 8G# 8b
8A	8c#	8a	.	8AA	IV	8A 8cc# 8ee
4B	4dn	8g#	4b	4BB	v	4B 4dd 4ff#
.	.	8f#	.	.	.	.
8B	8c#	8e#	4cc#	8CC#	V7d/ii	8c# 8e# 8g# 8B
8A	8d#	8f#	.	8DD#	viio7c	8d# 8f# 8A 8c#
8G#	8e#	8g#	8g#	8EE#	viib/ii	8e# 8G# 8b#
8F#	8f#	8c#	8a	8FF#	ii	8F# 8a 8cc#
=8	=8	=8	=8	=8	=8	=8
4E#	8g#	8c#	4b	4CC#	V7b/ii	4c# 4E# 4g# 4b
.	8c#	8g#	.	.	.	.
4F#	4c#	8g#	4a	4FF#	ii	4F# 4a 4cc#
.	.	8f#	.	.	.	.
4C#;	4c#;	8f#	4g#;	4CC#;	VI;	4C#; 4e#; 4g#;
.	.	8e#;	.	.	.	.
8c#	4c#	4e#	4g#	4CC#	VI	4C# 4e# 4g#
8B	.	.	.	.	.	.
=9	=9	=9	=9	=9	=9	=9
8A	8c#	8f#	8f#	8FF#	iib	8f# 8A 8cc#
8G#	8B	8en	8g#	8EE	Ib	8e 8G# 8b
4F#	4A	8d#	4a	4DD#	viiob	4d# 4F# 4a
.	.	8c#	.	.	.	.
8G#	4e	8B	4g#	8EE	Ic	8e 8g# 8B
8A	.	8c#	.	8AA	IV7	8A 8cc# 8ee 8gg#
4B	8B	4d#	4f#	4BB	V	4B 4dd# 4ff#
.	8A	.	.	.	.	.
=10	=10	=10	=10	=10	=10	=10
8B	4Gn	4e	4c#	4CC#	viioD7d/-VII	4c# 4e 4g 4B-
8A#	.	.	.	.	.	.
4B	8F#	4B	4d#	4BB	V	4B 4dd# 4ff#
.	8An	.	.	.	.	.
4E;	4G#;	4B;	4e;	4EE;	I;	4E; 4g#; 4b;
==	==	==	==	==	==	==
*-	*-	*-	*-	*-	*-	*-
